GWA/img/icons/icon-twitter.svg

<svg width="17" height="13" viewBox="0 0 17 13" fill="none" xmlns="http://www.w3.org/2000/svg">
<path d="M16.3335 1.5377C15.7446 1.79864 15.1127 1.97561 14.4488 2.05461C15.1267 1.64868 15.6456 1.00481 15.8916 0.239948C15.2557 0.615869 14.5538 0.888837 13.8059 1.03681C13.2071 0.397935 12.3552 0 11.4104 0C9.59772 0 8.12799 1.46973 8.12799 3.28139C8.12799 3.53833 8.15699 3.78928 8.21299 4.02926C5.48551 3.89226 3.06697 2.58552 1.44827 0.599869C1.16531 1.08379 1.00435 1.64766 1.00435 2.24957C1.00435 3.38837 1.58424 4.39318 2.46409 4.98105C1.92618 4.96306 1.42027 4.81509 0.977367 4.56913V4.61012C0.977367 6.19982 2.10916 7.52656 3.60987 7.82852C3.33491 7.90251 3.04498 7.9435 2.74503 7.9435C2.53308 7.9435 2.32811 7.92251 2.12715 7.88251C2.54506 9.18727 3.75685 10.1361 5.19259 10.1621C4.06979 11.0419 2.65405 11.5648 1.11635 11.5648C0.851406 11.5648 0.590438 11.5488 0.333496 11.5198C1.78623 12.4527 3.51091 12.9966 5.36456 12.9966C11.4024 12.9966 14.7028 7.99551 14.7028 3.65833L14.6918 3.23341C15.3367 2.77346 15.8946 2.19558 16.3335 1.5377Z" fill="white"/>
</svg>

<svg width="17" height="13" fill="none" xmlns="http://www.w3.org/2000/svg"><path d="M16.334 1.538c-.59.26-1.221.438-1.885.517A3.296 3.296 0 0015.892.24a6.617 6.617 0 01-2.086.797 3.282 3.282 0 00-5.593 2.992A9.319 9.319 0 011.448.6a3.257 3.257 0 00-.444 1.65 3.28 3.28 0 001.46 2.732A3.283 3.283 0 01.977 4.57v.041A3.286 3.286 0 003.61 7.83a3.324 3.324 0 01-.865.115 3.15 3.15 0 01-.618-.061 3.284 3.284 0 003.066 2.28 6.586 6.586 0 01-4.077 1.402c-.265 0-.526-.016-.783-.045a9.277 9.277 0 005.032 1.477c6.037 0 9.338-5.001 9.338-9.339l-.011-.425a6.553 6.553 0 001.642-1.695z" fill="#fff"/></svg>
